!!!!SEGMENT: pl-kk--kk-i-362--003_anonim--sanctus-sanctus.krn
!!!cenid: 17xx:2056
!!!COM: Anonim
!!!COM-rismid: pe30004985
!!!CDT:
!!!CNT:
!!!OTL: Sanctus sanctus
!!!PDT:
!!!AGN: Sacred
!!!SMS-siglum: PL-Kk
!!!SMS-shelfmark: Kk.I.362
!!!SMS-shelfwork: 003 W
!!!SMS-variant:
!!!SMS-altvar:
!!!NIFC-rismid: 1001144502
!!!URL-scan: http://repozytorium.nifc.pl/skany/pl-kk-nut--i-362
!!!ONB-nifc: UWAGA: utwory w zbiorze: 1. Ave Hierarchia, 2. Ave Maria, 3. Sanctus sanctus, 4. Pleni sunt caeli
**kern	**text
*I"[Basso]	*
*I'[B.]	*
*clefF4	*
*k[b-]	*
*F:	*
*M2/1	*
*met(c|)	*
=1-	=1-
!LO:TX:t=P:problem:znaki przykluczowe [b-b-]	!
1F	San-
2D/	.
2BB-/	.
=2-	=2-
1C	-ct(us)
2FF,/	.
*2\right	*
2F\	San-
=3-	=3-
2D/	.
!LO:TX:t=P:problem:kreska pseudotaktowa	!
2BB-/	.
4GG/	.
4AA/	.
4BB-/	.
4GG/	.
=4-	=4-
4D\	.
4E\	.
!LO:TX:t=P:problem:kreska pseudotaktowa	!
2F\	.
2C/	.
2BB-/	.
=5-	=5-
1C	-ctus
!LO:N:vis=0	!
1F;	.
=6||	=6||
*M2/1	*
*met(c|)	*
*lig	*
2BB-/	San-
2AA/	.
*Xlig	*
4GG/	.
4AA/	.
4BB-/	.
!LO:TX:t=P:problem:kreska pseudotaktowa	!
4C/	.
=7-	=7-
4D\	.
4E\	.
1F	.
2E\	.
=8-	=8-
2D/	.
2AA/	.
!!LO:LB:g=original
=-	=-
2BB-/	.
2C/	-ctus.
=9-	=9-
1FF	.
=||	=||
*M2/1	*
*met(c|)	*
2.F\	San-
4E\	.
=10-	=10-
4D\	.
4C\	.
!LO:TX:t=P:problem:kreska pseudotaktowa	!
2D\	.
4C/	.
4D/	.
4En/	.
4C/	.
=11-	=11-
2.G\	.
!LO:TX:t=P:problem:kreska pseudotaktowa	!
4F\	.
2E\	.
!LO:TX:t=P:problem:kreska pseudotaktowa	!
2F\	.
=12-	=12-
4D\	.
4E\	.
4F\	.
4G\	.
4A\	.
4B-\	.
!LO:TX:t=P:problem:kreska pseudotaktowa	!
2c\	.
=13-	=13-
2F\	.
2G\	.
2En\	.
4F\	.
!LO:TX:t=P:problem:kreska pseudotaktowa	!
4E\	.
=14-	=14-
4D/	.
4C/	.
2D/	.
2C/	.
2AA/	.
=15-	=15-
1BB-	.
1GG	.
!!LO:LB:g=original
=16-	=16-
2FF,/	-ct(us)
!LO:TX:t=P:problem:kreska pseudotaktowa	!
2F\	San-
2D\	.
2F\	.
=17-	=17-
2G\	.
1B-	.
4A\	.
4B-\	.
=18-	=18-
4c\	.
4B-\	.
4A\	.
4G\	.
2F\	.
2D\	.
=19-	=19-
2A\	.
!LO:TX:t=P:problem:kreska pseudotaktowa	!
2AA/	.
4BB-/	.
4C/	.
4D/	.
4E/	.
=20-	=20-
4F\	.
4G\	.
!LO:TX:t=P:problem:kreska pseudotaktowa	!
2A\	.
2F\	.
2G\	-ctus
=21-	=21-
!LO:TX:t=P:problem:kreska pseudotaktowa	!
1C	.
2.F\	D(o-
4E\	-mi)-
=22-	=22-
!LO:TX:t=P:problem:kreska pseudotaktowa	!
1D	-n(us)
2BB-/	DE-
2GG/	-us
=23-	=23-
2AA/	Sab-
!LO:TX:t=P:problem:kreska pseudotaktowa	!
2FF/	.
2.C/	.
4BB-/	.
=24-	=24-
4AA/	.
4GG/	.
2FF/	.
2.C/	.
4C/	-ba-
=25-	=25-
!LO:N:vis=0	!
1FF;	-oth
!!LO:LB:g=original
*-	*-
!!!ENC: Marta Chmielewska
!!!END: 2021-03-08
!!!ENC: Mateusz Solarz
!!!END: 2021-02-18
